X: 2
T: Carolan's Cup
C:Trad.
Z: From Fiddle Book by M. Thaut.
M: 6/8
K:D
 (de) | f3/(g/f/e/) (df)a | ~e2 d/B/ A2 f/e/ | dcB A<FA | Bba bfe |
 f3/(g/f/e/) (df)a | e(g/f/e/d/) c2 e | (dc)B (AF)A | B3 B2 :|
|: c | d3/(e/d/c/) d2 f | a3/(b/a/f/) .a2 f | e3/(f/e/d/) (ef)a | (b3 b)(fa) |
baf/e/ (de)a | ~e2 d/B/ A2 f/e/ | (dc)B (AF)A | B3 B2 :|
